X: 20879
T: Jolly Tinker, The
R: reel
M: 4/4
K: Gmajor
"Am"A2 AB "G"G2 GB|"Am" A2 af "G" gedB|"Am" A2 AB "G" G2 GB|"G" dBGB dedB|
"Am" A2 AB "G" G2 GB|"Am" A2 af "G" gedB|"Am" A2 AB "Am" G2 GB|dBGB dGBd||
"Am" edef "Em" g2 fg|"Am" edef "G" ge d2|"Em" edeg "Am" a2 eg|agbg "Em" aged|
"Am" edef "Em" g2 fg|"Am" edef "G" ge d2|"Em" edeg "Am" a2 eg|agbg "Em" aged||
"Am" eaag "Em" eaag|"Am" eaag "Em" eg d2|"Am" eaag "Em" efge|"G" dBGB dGBd|
"Am" eaag "Em" eaag|"Am" eaag "Em" eg d2|"Am" eaag "Em" efge|"G" dBGB dGBd||
"Am" edgd "Em"edBd|"Am" edgd "Em"e2 Bd|"Am" edef "Em"gfge|"G" dBGB dGBd|
"Am" edgd "Em"edBd|"Am" edgd "Em"e2 Bd|"Am" edef "Em"gfge|"G" dBGB dGBd||
"Am" eAAA "Em"edBd|"Am" edef "G" g2 fg|"Am" eAAA "Em"efge|"G" dBGB dGBd|
"Am" eAAA "Em"edBd|"Am" edef "G" g2 fg|"Am" eaag "Em"efge|"G" dBGB d4||

